X: 10361
M: C|
L: 1/8
K: A
P: 1 Strathspey.
uE |\
c(e-"_>"e.g) a/g/f/e/ bc | d>fe<c {c}B2(Bd) | c(e-"_>"e.g) a/g/f/e/ fd | c<eB>c A2(Ad) |
c(e-"_>"e.g) a/g/f/e/ bc | d>fe<c B2(Bd) | (3cba (3gfe (3dcB (3ABc | A<FE>F "_Segue Reel."A2A |]
P: 2 Reel.
vA2(cA) eccf | ecac B2(Bc) | AAcA acBc | AFEF A(aga) |
ceef ecce | {g}a2{g}a2 bgae | ceef eccb | cABG A2(Ad) |
ceef ecce | {g}a2{g}a2 bgae | ceea gbdb | cABG A(aga) ||["To finish"cABG A2"_Fine"Az |]


